X: 39138
T: Sweetest When Naked
R: polka
M: 2/4
K: Amajor
"A"E2AB c2A2|c2e2 e2c2|"E7"B2Bc d2B2|"D"d2f2 f2a2|
"A"E2AB c2A2|c2e2 "E"f2g2|"A"a2e2 c2A2||1 "E"E2A2 "A"A4:|2 "E"E2A2 "A"A2cd||
"A"e2c2 e2f2|e2c2 e2f2|e2c2 e2f2|"E7"d2B2 B2c2|
"Bm7"d2B2 d2e2|d2B2 d2e2|d2B2 "E"b2B2|"A"c2A2 A4|
"A"E2AB c2A2|c2e2 e2c2|"E"B2Bc d2B2|"D"d2f2 "E"f2g2|
"A"a2e2 "C#m"c2e2|"D"f2d2 "Bm7"B2d2|"A"e2c2 "E"B2G2|"A"E2A2 A4||

